X:1
T:Fix Your Eyes upon Jesus
T:Fix Your Eyes upon Jesus
T:James McGranahan
T:Daniel Webster Whittle, 1877
T:Public Domain Courtesy of the Cyber Hymnal™
C:James McGranahan
Z:Public Domain
Z:Courtesy of the Cyber Hymnal™
%%score ( 1 2 ) 3
L:1/8
Q:1/4=100
M:6/8
K:G
V:1 treble 
V:2 treble 
V:3 bass 
V:1
 [B,B]2 [B,D] [B,G]2 [CA] | [DB]2 [Ec] [DB]3 | [Gd]2 [GB] [GB][GA]G | [GB]3 [FA]3 | %4
w: 1.~Would you lose your|load of sin?|Fix your eyes up- on|Je- sus;|
w: 2.~Would you calm- ly|walk the wave?|Fix your eyes up- on|Je- sus;|
w: 3.~Would you have your|cares grow light?|Fix your eyes up- on|Je- sus;|
w: 4.~Griev- ing, would you|com- fort know?|Fix your eyes up- on|Je- sus;|
w: 5.~Would you strength in|weak- ness have?|Fix your eyes up- on|Je- sus;|
 [B,G]2 [B,D] [B,G]2 [CA] | [DB]2 [Ec] [DB]3 | [Gd]2 [GB] [GB][GA]G | [FA]3 G3 || %8
w: Would you know God’s|peace with- in?|Fix your eyes up- on|Je- sus;|
w: Would you know His|pow’r to save?|Fix your eyes up- on|Je- sus;|
w: Would you songs have|in the night?|Fix your eyes up- on|Je- sus;|
w: Hum- ble be when|bless- ings flow?|Fix your eyes up- on|Je- sus;|
w: See a light be-|yond the grave?|Fix your eyes up- on|Je- sus;|
"^Refrain" [Gd][G^c][Gd] [Ge]2 [Gd] | [Gd]2 [Fc] [Fc]3 | [Fc][GB][Ac] [Bd]2 [Ac] | %11
w: |||
w: |||
w: Je- sus who on the|cross did die,|Je- sus who lives and|
w: |||
w: |||
 [Ac]2 [GB] [GB]3 | [GB]2 [Gc] [Gd]2 [GB] | [Gc]2 [Gd] !fermata![Ge]3 | [Gd]2 [GB] [GB][DA][DG] | %15
w: ||||
w: ||||
w: reigns on high,|He a- lone can|jus- ti- fy;|Fix your eyes up- on|
w: ||||
w: ||||
 [DA]3 [DG]3 |] %16
w: |
w: |
w: Je- sus.|
w: |
w: |
V:2
 x6 | x6 | x5 G | x6 | x6 | x6 | x5 G | x3 G3 || x6 | x6 | x6 | x6 | x6 | x6 | x6 | x6 |] %16
V:3
 [G,,G,]2 [G,,G,] [G,,D,]2 [G,,D,] | [G,,G,]2 [G,,G,] [G,,G,]3 | [G,B,]2 [G,D] [G,D][G,C][G,B,] | %3
 [D,D]3 [D,D]3 | [G,,G,]2 [G,,G,] [G,,D,]2 [G,,D,] | [G,,G,]2 [G,,G,] [G,,G,]3 | %6
 [G,B,]2 [G,D] [G,D][G,C][G,B,] | [D,C]3 [G,B,]3 || [G,B,][G,^A,][G,B,] [G,C]2 [G,B,] | %9
 [D,B,]2 [D,A,] [D,A,]3 | [D,A,][D,G,][D,F,] [D,G,]2 [D,D] | [G,D]2 [G,D] [G,D]3 | %12
 [G,D]2 [G,C] [G,B,]2 [=F,D] | [E,C]2 [D,B,] !fermata![C,C]3 | [D,B,]2 [D,D] [D,D][D,C][D,B,] | %15
 [D,C]3 [G,,B,]3 |] %16

